X:1694
T:Folkwiki Reel
R:Halling
O:Dorotea, Lappland
C: Eva Zwahlen
M:4/4
L:1/16  
K:Gm
Q: 1/4=120
|: G2d2 c2A2 B2G2 A4 | G2d2 c2A2 B2G2 A4 | a2b2c2d2 d4 d4 | d2g2 f2d2 =e2c2 d4 | d2g2 f2d2 =e2c2 d4 | a2b2c2d2 d4 d4 | a2gf =e2c2 d4 d4|d2cB A2F2 G4 G4 "_Fine":| A=Bcd =edcB ABcd e2a2 | A=Bcd =edcB ABcd B2G2 |A=Bcd =edcB ABcd e2a2 | A=Bcd =edcB ABcd B2G2 |[M:3/4] A4 A4 A4 |[M:4/4] d2cB A2F2 "_da capo al Fine" G4 G4 |]
(:musicend:)
(:music:)
